24x24/actions/im-google.svg

<svg xmlns="http://www.w3.org/2000/svg" viewBox="0 0 24 24">
  <defs id="defs3051">
    <style type="text/css" id="current-color-scheme">
      .ColorScheme-Text {
        color:#5d656b;
      }
      </style>
  </defs>
 <path style="fill:currentColor;fill-opacity:1;stroke:none" 
     d="M 12.611328 4 C 12.429922 3.9999 12.013362 4.017781 11.505859 4.1132812 C 10.306335 4.3394813 8.6450238 5.1515938 8.1757812 6.8710938 C 7.4500656 9.5300937 9.3105469 10.603516 9.3105469 10.603516 C 9.3105469 10.603516 9.975801 10.995619 10.246094 11.074219 C 11.058425 11.310619 11.925781 11.203125 11.925781 11.203125 C 11.925781 11.203125 11.576741 12.390369 12.267578 13.230469 C 12.432511 13.430969 12.314453 13.441406 12.314453 13.441406 C 12.314453 13.441406 9.2927242 13.369376 7.8632812 14.951172 C 6.4338382 16.532872 7.2109375 17.984375 7.2109375 17.984375 C 7.2109375 17.984375 7.9626886 19.899894 11.195312 19.996094 C 14.442296 20.093094 16.435934 18.087319 16.611328 16.574219 C 16.699488 15.813619 16.603728 15.088044 16.238281 14.464844 C 15.882768 13.858844 15.262384 13.334772 14.666016 12.826172 C 14.295457 12.510172 14.037213 12.341956 13.871094 12.160156 C 13.714156 11.988556 13.679995 11.775275 13.685547 11.609375 C 13.693347 11.377675 13.825098 11.089741 14.214844 10.619141 C 14.925865 9.7607402 15.107514 9.8828344 15.537109 9.2402344 C 15.665898 9.0476344 15.762345 8.7508313 15.894531 8.3320312 C 15.974161 8.0798313 15.957021 7.8291375 15.957031 7.5859375 C 15.957051 7.0604375 15.83229 6.5472 15.630859 6.125 C 15.256523 5.3404 14.615821 4.8334219 14.603516 4.7949219 L 15.724609 4.7949219 L 17 4.015625 L 12.705078 4 C 12.705064 3.9998 12.671798 4 12.611328 4 z M 11.693359 4.7304688 C 12.349877 4.7404687 13.326952 5.0872469 13.917969 6.9355469 C 14.932179 10.106947 12.8125 10.603516 12.8125 10.603516 C 12.8125 10.603516 10.380995 10.990622 9.9335938 8.1699219 C 9.4778396 5.2968219 10.589156 5.143075 11.023438 4.859375 C 11.023438 4.859375 11.299448 4.7276687 11.693359 4.7304688 z M 13.015625 14.091797 C 13.015625 14.091797 14.9662 15.324822 15.148438 16.232422 C 15.352616 17.249122 15.366234 17.985975 13.886719 18.796875 C 13.449957 19.036375 12.689771 19.070266 12.207031 19.072266 C 11.020511 19.082266 10.112792 18.6137 9.6699219 18.375 C 9.4397671 18.2511 8.1785608 16.74475 9.125 15.40625 C 9.3630672 15.06955 9.6259664 14.911834 9.8710938 14.740234 C 10.39276 14.375234 10.897908 14.210847 11.863281 14.123047 C 12.18437 14.094047 12.595468 14.123797 13.015625 14.091797 z "
     class="ColorScheme-Text"
     />
</svg>

<svg xmlns="http://www.w3.org/2000/svg" viewBox="0 0 24 24"><path style="fill:currentColor;fill-opacity:1;stroke:none;color:#5d656b" d="M12.611 4c-.181 0-.598.018-1.105.113-1.2.226-2.861 1.039-3.33 2.758-.726 2.66 1.135 3.733 1.135 3.733s.665.392.935.47c.812.237 1.68.13 1.68.13s-.35 1.186.342 2.026c.165.201.046.211.046.211s-3.021-.072-4.45 1.51c-1.43 1.582-.653 3.033-.653 3.033s.752 1.916 3.984 2.012c3.247.097 5.24-1.909 5.416-3.422.088-.76-.007-1.486-.373-2.11-.355-.605-.976-1.13-1.572-1.638-.37-.316-.629-.484-.795-.666a.765.765 0 0 1-.185-.55c.007-.232.14-.52.529-.99.71-.86.893-.737 1.322-1.38.129-.192.225-.49.358-.908.08-.252.062-.503.062-.746 0-.526-.125-1.039-.326-1.461-.374-.785-1.015-1.292-1.027-1.33h1.12L17 4.015 12.705 4h-.094zm-.918.73c.657.01 1.634.357 2.225 2.206 1.014 3.17-1.105 3.668-1.105 3.668s-2.432.387-2.88-2.434c-.455-2.873.656-3.027 1.09-3.31 0 0 .276-.132.67-.13zm1.323 9.362s1.95 1.233 2.132 2.14c.205 1.017.218 1.754-1.261 2.565-.437.24-1.197.273-1.68.275-1.186.01-2.094-.458-2.537-.697-.23-.124-1.491-1.63-.545-2.969.238-.336.501-.494.746-.666.522-.365 1.027-.53 1.992-.617.321-.029.732 0 1.153-.031z"/></svg>
